src/assets/outline/Path2.svg

<svg width="24" height="24" viewBox="0 0 24 24"  xmlns="http://www.w3.org/2000/svg">
<path d="M14.1502 22.7501H9.87022C8.85022 22.7501 7.91022 22.3201 7.31022 21.5601C6.78022 20.9001 6.59022 20.0601 6.77022 19.2601L7.46022 16.1801C7.54022 15.8401 7.84022 15.6001 8.19022 15.6001H15.8302C16.1802 15.6001 16.4802 15.8401 16.5602 16.1801L17.2602 19.2601C17.4502 20.1201 17.2702 20.9501 16.7502 21.6001C16.1702 22.3301 15.2202 22.7501 14.1502 22.7501ZM8.79022 17.1001L8.23022 19.6001C8.15022 19.9601 8.24022 20.3201 8.48022 20.6301C8.79022 21.0201 9.31022 21.2501 9.87022 21.2501H14.1602C14.7702 21.2501 15.2902 21.0401 15.5802 20.6701C15.8202 20.3801 15.8902 20.0001 15.8002 19.6001L15.2402 17.1001H8.79022Z" />
<path d="M8.19006 17.1C8.01006 17.1 7.83006 17.04 7.69006 16.91L4.75006 14.3C2.82006 12.71 2.66006 11.17 4.25006 9.15L9.44006 2.57C10.1101 1.72 11.0301 1.25 12.0101 1.25C13.0001 1.25 13.9101 1.72 14.5801 2.57L19.7701 9.15C21.3401 11.14 21.2001 12.59 19.2701 14.3L16.3301 16.91C16.0201 17.18 15.5401 17.16 15.2701 16.85C15.0001 16.54 15.0201 16.07 15.3301 15.79L18.2701 13.18C19.5901 12.01 19.6501 11.43 18.5901 10.08L13.4101 3.5C12.6501 2.53 11.3801 2.53 10.6201 3.5L5.43006 10.08C4.34006 11.46 4.39006 12.07 5.72006 13.16L8.68006 15.79C8.99006 16.06 9.02006 16.54 8.74006 16.85C8.60006 17.01 8.40006 17.1 8.19006 17.1Z" />
<path d="M12.0098 7.71992C11.5998 7.71992 11.2598 7.37992 11.2598 6.96992V2.66992C11.2598 2.25992 11.5998 1.91992 12.0098 1.91992C12.4198 1.91992 12.7598 2.25992 12.7598 2.66992V6.96992C12.7598 7.37992 12.4198 7.71992 12.0098 7.71992Z" />
<path d="M14.1502 22.7501H9.87022C8.85022 22.7501 7.91022 22.3201 7.31022 21.5601C6.78022 20.9001 6.59022 20.0601 6.77022 19.2601L7.46022 16.1801C7.54022 15.8401 7.84022 15.6001 8.19022 15.6001H15.8302C16.1802 15.6001 16.4802 15.8401 16.5602 16.1801L17.2602 19.2601C17.4502 20.1201 17.2702 20.9501 16.7502 21.6001C16.1702 22.3301 15.2202 22.7501 14.1502 22.7501ZM8.79022 17.1001L8.23022 19.6001C8.15022 19.9601 8.24022 20.3201 8.48022 20.6301C8.79022 21.0201 9.31022 21.2501 9.87022 21.2501H14.1602C14.7702 21.2501 15.2902 21.0401 15.5802 20.6701C15.8202 20.3801 15.8902 20.0001 15.8002 19.6001L15.2402 17.1001H8.79022Z" />
<path d="M8.19006 17.1C8.01006 17.1 7.83006 17.04 7.69006 16.91L4.75006 14.3C2.82006 12.71 2.66006 11.17 4.25006 9.15L9.44006 2.57C10.1101 1.72 11.0301 1.25 12.0101 1.25C13.0001 1.25 13.9101 1.72 14.5801 2.57L19.7701 9.15C21.3401 11.14 21.2001 12.59 19.2701 14.3L16.3301 16.91C16.0201 17.18 15.5401 17.16 15.2701 16.85C15.0001 16.54 15.0201 16.07 15.3301 15.79L18.2701 13.18C19.5901 12.01 19.6501 11.43 18.5901 10.08L13.4101 3.5C12.6501 2.53 11.3801 2.53 10.6201 3.5L5.43006 10.08C4.34006 11.46 4.39006 12.07 5.72006 13.16L8.68006 15.79C8.99006 16.06 9.02006 16.54 8.74006 16.85C8.60006 17.01 8.40006 17.1 8.19006 17.1Z" />
<path d="M12.0098 7.71992C11.5998 7.71992 11.2598 7.37992 11.2598 6.96992V2.66992C11.2598 2.25992 11.5998 1.91992 12.0098 1.91992C12.4198 1.91992 12.7598 2.25992 12.7598 2.66992V6.96992C12.7598 7.37992 12.4198 7.71992 12.0098 7.71992Z" />
</svg>

<?xml version="1.0" encoding="UTF-8"?>
<svg width="24" height="24" viewBox="0 0 24 24" xmlns="http://www.w3.org/2000/svg">
 <path d="m14.15 22.75h-4.28c-1.02 0-1.96-0.43-2.56-1.19-0.53-0.66-0.72-1.5-0.54-2.3l0.69-3.08c0.08-0.34 0.38-0.58 0.73-0.58h7.64c0.35 0 0.65 0.24 0.73 0.58l0.7 3.08c0.19 0.86 0.01 1.69-0.51 2.34-0.58 0.73-1.53 1.15-2.6 1.15zm-5.36-5.65-0.56 2.5c-0.08 0.36 0.01 0.72 0.25 1.03 0.31 0.39 0.83 0.62 1.39 0.62h4.29c0.61 0 1.13-0.21 1.42-0.58 0.24-0.29 0.31-0.67 0.22-1.07l-0.56-2.5h-6.45z"/>
 <path d="m8.1901 17.1c-0.18 0-0.36-0.06-0.5-0.19l-2.94-2.61c-1.93-1.59-2.09-3.13-0.5-5.15l5.19-6.58c0.67004-0.85 1.59-1.32 2.57-1.32 0.99 0 1.9 0.47 2.57 1.32l5.19 6.58c1.57 1.99 1.43 3.44-0.5 5.15l-2.94 2.61c-0.31 0.27-0.79 0.25-1.06-0.06s-0.25-0.78 0.06-1.06l2.94-2.61c1.32-1.17 1.38-1.75 0.32-3.1l-5.18-6.58c-0.76-0.97-2.03-0.97-2.79 0l-5.19 6.58c-1.09 1.38-1.04 1.99 0.29 3.08l2.96 2.63c0.31 0.27 0.34 0.75 0.06 1.06-0.14 0.16-0.34 0.25-0.55 0.25z"/>
 <path d="m12.01 7.7199c-0.41 0-0.75-0.34-0.75-0.75v-4.3c0-0.41 0.34-0.75 0.75-0.75s0.75 0.34 0.75 0.75v4.3c0 0.41-0.34 0.75-0.75 0.75z"/>
 <path d="m14.15 22.75h-4.28c-1.02 0-1.96-0.43-2.56-1.19-0.53-0.66-0.72-1.5-0.54-2.3l0.69-3.08c0.08-0.34 0.38-0.58 0.73-0.58h7.64c0.35 0 0.65 0.24 0.73 0.58l0.7 3.08c0.19 0.86 0.01 1.69-0.51 2.34-0.58 0.73-1.53 1.15-2.6 1.15zm-5.36-5.65-0.56 2.5c-0.08 0.36 0.01 0.72 0.25 1.03 0.31 0.39 0.83 0.62 1.39 0.62h4.29c0.61 0 1.13-0.21 1.42-0.58 0.24-0.29 0.31-0.67 0.22-1.07l-0.56-2.5h-6.45z"/>
 <path d="m8.1901 17.1c-0.18 0-0.36-0.06-0.5-0.19l-2.94-2.61c-1.93-1.59-2.09-3.13-0.5-5.15l5.19-6.58c0.67004-0.85 1.59-1.32 2.57-1.32 0.99 0 1.9 0.47 2.57 1.32l5.19 6.58c1.57 1.99 1.43 3.44-0.5 5.15l-2.94 2.61c-0.31 0.27-0.79 0.25-1.06-0.06s-0.25-0.78 0.06-1.06l2.94-2.61c1.32-1.17 1.38-1.75 0.32-3.1l-5.18-6.58c-0.76-0.97-2.03-0.97-2.79 0l-5.19 6.58c-1.09 1.38-1.04 1.99 0.29 3.08l2.96 2.63c0.31 0.27 0.34 0.75 0.06 1.06-0.14 0.16-0.34 0.25-0.55 0.25z"/>
 <path d="m12.01 7.7199c-0.41 0-0.75-0.34-0.75-0.75v-4.3c0-0.41 0.34-0.75 0.75-0.75s0.75 0.34 0.75 0.75v4.3c0 0.41-0.34 0.75-0.75 0.75z"/>
</svg>
